X:1
T:[ID 7-141]
T:[ID 7-141]
T:Bezeichnung standardisiert: Menuet [mit Trio] 6. Menuet [mit Trio] Primo
T:Urheber unbekannt Datum in der hier transkribierten schriftlichen Quelle: 1776 - 1791
C:Urheber unbekannt
C:Datum in der hier transkribierten schriftlichen Quelle: 1776 - 1791
%%score 1 2
L:1/8
M:3/4
K:C
V:1 treble nm="Primo"
V:2 treble nm="Secondo"
V:1
 c4 (c/d/e/d/) | c2 G2 E2 | F2 D2 G2 | C4 z2 | e>g Tg3/2(^f/4g/4) e>g | d>g Tg3/2(^f/4g/4) d>g | %6
 e>c B2 A2 |{A} G6 :: G4 G/A/B/A/ | G2 D2 f2 | (eg)(gf)(fe) | Te2 d2 z2 | (c/d/e/d/) cBA^G | %13
 (A/B/c/B/) AGFE | (AG F) E2 D2 |{E} C6 ::[M:3/4]"^Trio"!p! (!fermata!G2 E2) .G2 | G3 F E2 | %18
 D2 E2 F2 | (EA) G4 | (G2 E2) G2 | G3 F E2 | DE F2 E2 |{E} D6 :: D3 E F2 | (E2 F2 G2) | %26
 (cG)(GF)(FE) | TE2 D2 z2 | G2 E2 G2 | A3 B c2 | AF E2 D2 |{D} C6 :| %32
V:2
 !fermata!c4 (c/d/e/d/) | c2 G2 E2 | F2 D2 z2 | C4 z2 | G6- | G6 | c>A G2 ^F2 |{F} G6 :: %8
 G4 (G/A/B/A/) | G2 D2 d2 | (ce)(ed)(dc) | Tc2 B2 z2 | c/d/e/d/ cBA^G | (A/B/c/B/) AGFE | %14
 AG F E2 D2 |{D} C6 ::[M:3/4]!p! (E2 C2) E2 | E3 D C2 | B,2 (C2 D2) | CF E4 | (E2 C2) E2 | %21
 E3 D C2 | B,C D2 C2 |{C} B,6 :: B,3 C D2 | C2 (D2 E2) | E2 (ED)(DC) | TC2 B,2 z2 | (E2 C2) E2 | %29
 F4 E2 | FD C2 B,2 |{B,} C6 :| %32

